Sources/FrostedUI/Resources/Icons.xcassets/couponExpired16.imageset/coupon-expired-16.svg

<svg width="16" height="16" viewBox="0 0 16 16" fill="none" xmlns="http://www.w3.org/2000/svg" data-fui-icon="true">
  <path
    d="M5.29395 0C5.79275 6.94055e-05 6.17957 0.285316 6.39551 0.628906L6.47656 0.779297L6.5332 0.890625C6.83311 1.43325 7.3861 1.78027 8 1.78027C8.65488 1.78027 9.2404 1.38523 9.52344 0.779297L9.60449 0.628906C9.82043 0.285316 10.2072 6.93231e-05 10.7061 0H12.75C13.7165 0 14.5 0.783502 14.5 1.75V14.25C14.5 15.2165 13.7165 16 12.75 16H10.7061C10.1361 15.9999 9.71324 15.627 9.52344 15.2207C9.2404 14.6148 8.65488 14.2197 8 14.2197C7.34512 14.2197 6.7596 14.6148 6.47656 15.2207C6.28676 15.627 5.86393 15.9999 5.29395 16H3.25C2.2835 16 1.5 15.2165 1.5 14.25V1.75C1.5 0.783502 2.2835 0 3.25 0H5.29395ZM3.25 1.5C3.11193 1.5 3 1.61193 3 1.75V14.25C3 14.3881 3.11193 14.5 3.25 14.5H5.16211C5.68835 13.4543 6.75186 12.7197 8 12.7197C9.24814 12.7197 10.3116 13.4543 10.8379 14.5H12.75C12.8881 14.5 13 14.3881 13 14.25V1.75C13 1.61193 12.8881 1.5 12.75 1.5H10.8379C10.3116 2.54568 9.24814 3.28027 8 3.28027C6.75186 3.28027 5.68835 2.54568 5.16211 1.5H3.25ZM10.0947 4.84473C10.3876 4.55183 10.8624 4.55183 11.1553 4.84473C11.4482 5.13762 11.4482 5.61238 11.1553 5.90527L9.06055 8L11.1553 10.0947C11.4482 10.3876 11.4482 10.8624 11.1553 11.1553C10.8624 11.4482 10.3876 11.4482 10.0947 11.1553L8 9.06055L5.90527 11.1553C5.61238 11.4482 5.13762 11.4482 4.84473 11.1553C4.55183 10.8624 4.55183 10.3876 4.84473 10.0947L6.93945 8L4.84473 5.90527C4.55183 5.61238 4.55183 5.13762 4.84473 4.84473C5.13762 4.55183 5.61238 4.55183 5.90527 4.84473L8 6.93945L10.0947 4.84473Z"
    fill="currentColor"
  />
</svg>

<svg xmlns="http://www.w3.org/2000/svg" width="16" height="16" fill="none" data-fui-icon="true" viewBox="0 0 16 16"><path fill="currentColor" d="M5.294 0c.499 0 .886.285 1.102.629l.08.15.057.112c.3.542.853.89 1.467.89.655 0 1.24-.396 1.523-1.002l.081-.15A1.3 1.3 0 0 1 10.706 0h2.044c.966 0 1.75.784 1.75 1.75v12.5A1.75 1.75 0 0 1 12.75 16h-2.044c-.57 0-.993-.373-1.183-.78-.283-.605-.868-1-1.523-1s-1.24.395-1.523 1c-.19.407-.613.78-1.183.78H3.25a1.75 1.75 0 0 1-1.75-1.75V1.75C1.5.784 2.284 0 3.25 0zM3.25 1.5a.25.25 0 0 0-.25.25v12.5c0 .138.112.25.25.25h1.912c.526-1.046 1.59-1.78 2.838-1.78s2.312.734 2.838 1.78h1.912a.25.25 0 0 0 .25-.25V1.75a.25.25 0 0 0-.25-.25h-1.912C10.312 2.546 9.248 3.28 8 3.28S5.688 2.546 5.162 1.5zm6.845 3.345a.75.75 0 1 1 1.06 1.06L9.061 8l2.094 2.095a.75.75 0 1 1-1.06 1.06L8 9.061l-2.095 2.094a.75.75 0 1 1-1.06-1.06L6.939 8 4.845 5.905a.75.75 0 1 1 1.06-1.06L8 6.939z"/></svg>
